source/svgs/bowtie/uEA22-trigger-user.svg

<svg xmlns="http://www.w3.org/2000/svg" viewBox="0 0 448 448" enable-background="new 0 0 448 448"><path d="M387.186 348.967c17.462-14.688 28.814-36.416 28.814-60.967 0-44.109-35.875-80-80-80s-80 35.891-80 80c0 24.551 11.352 46.279 28.814 60.967-35.939 18.668-60.814 55.818-60.814 99.033h32c0-44.109 35.875-80 80-80s80 35.891 80 80h32c0-43.215-24.875-80.365-60.814-99.033zm-99.186-60.967c0-26.469 21.531-48 48-48s48 21.531 48 48-21.531 48-48 48-48-21.531-48-48zm-63.154 12.898l-137.908 147.102h-83.204l96-160h-93.625l144-288h166.141l-95.984 160h136.672l-15.514 16.549c-1.836-.09-3.566-.549-5.424-.549-20.801 0-40.059 6.078-56.768 16h-115.498l96.016-160h-89.859l-112 224h98.375l-96 160h12.797l159.221-169.834c-5.245 12.949-8.284 27.027-8.284 41.834 0 4.34.344 8.637.846 12.898z"/></svg>

<svg xmlns="http://www.w3.org/2000/svg" viewBox="0 0 448 448"><path d="M387.186 348.967C404.648 334.279 416 312.551 416 288c0-44.109-35.875-80-80-80s-80 35.891-80 80c0 24.551 11.352 46.279 28.814 60.967C248.875 367.635 224 404.785 224 448h32c0-44.109 35.875-80 80-80s80 35.891 80 80h32c0-43.215-24.875-80.365-60.814-99.033zM288 288c0-26.469 21.531-48 48-48s48 21.531 48 48-21.531 48-48 48-48-21.531-48-48zm-63.154 12.898L86.938 448H3.734l96-160H6.109l144-288H316.25l-95.984 160h136.672l-15.514 16.549c-1.836-.09-3.566-.549-5.424-.549-20.801 0-40.059 6.078-56.768 16H163.734L259.75 32h-89.859l-112 224h98.375l-96 160h12.797l159.221-169.834C227.039 259.115 224 273.193 224 288c0 4.34.344 8.637.846 12.898z"/></svg>
